X: 8467
T: Crail Harbour
R: reel
M: 4/4
K: Gmajor
"G"G2FG EGDB,|"D"G2BG AcFA|"C"G2FG EGDG|"D"AcBA GFED:|
"Em"E2dB E2de|"D"f2ea dead|"C"Bc2d edgB|"D7"AcBA GEED:|

